assets/hackernoon/original.svg

<svg viewBox="0 0 24 24" xmlns="http://www.w3.org/2000/svg" fill="#00FE00"><path d="m5.701 0v6.223h3.149v-1.569h1.576v7.842h1.574v-7.842h1.574v1.569h3.15v-6.223zm11.024 6.223v3.136h1.574v-3.136zm1.574 3.136v4.705h1.576v-1.568h1.574v-1.568h-1.574v-1.569zm0 4.705h-1.574v3.137h1.574zm-1.574 3.137h-3.15v1.569h-4.725v-1.57h-3.15v6.8h11.024zm-11.024 0v-3.137h-1.576v3.137zm-1.576-3.137v-4.704h-1.574v4.705zm0-4.705h1.576v-3.136h-1.576z"/></svg>

<svg xmlns="http://www.w3.org/2000/svg" fill="#00fe00" viewBox="0 0 24 24"><path d="M5.701 0v6.223H8.85V4.654h1.576v7.842H12V4.654h1.574v1.569h3.15V0zm11.024 6.223v3.136h1.574V6.223zm1.574 3.136v4.705h1.576v-1.568h1.574v-1.568h-1.574V9.359zm0 4.705h-1.574v3.137h1.574zm-1.574 3.137h-3.15v1.569H8.85V17.2H5.7V24h11.024zm-11.024 0v-3.137H4.125v3.137zm-1.576-3.137V9.36H2.551v4.705zm0-4.705h1.576V6.223H4.125z"/></svg>
